X:1
T:Nave tua
T:Daniel Friderici
T:Source : Bicinia sacra---Rostock---J.Richelius---1642. Editor : André Vierendeels (04/07/17).
T:Notes : Original clefs : C1, C1 Editorial accidentals above the staff m 37 : third "D" notated as quarter in original print
T:Nave tua
T:©
T:©
T:©
C:Daniel Friderici
Z:©
%%score [ 1 2 ]
L:1/8
Q:1/4=120
M:2/2
K:C
V:1 treble nm="Soprano 1" snm="S 1"
V:2 treble nm="Soprano 2" snm="S 2"
V:1
 A6 GF | E2 F2 G2 A2 | B2 G2 A2 B2 | ^c6 d2 | e2 c2 B2 A2 | G2 E2 ^F2 ^G2 | A8- | A4 ^G2 ^F2 | %8
w: Na- * *||||||||
 ^G8 | A4 A2 A2 | A4 c2 A2 | A4 A4 | ^G2 G2 A2 B2 | c8 | B2 B2 c2 d2 | e4 d4 | c8 | B4 E4 | %18
w: |ve, na- ve|tu- a, na-|ve tu-|a, si non ser-|va-|mur, si non ser-|va- mur|Chri-|ste pe-|
 e2 c2 d2 B2 | c2 A2 B2 G2 | A4 E4 | z4 B4 | e2 c2 d2 B2 | c2 A2 B2 G2 | A4 E2 E2 | e4 z2 B2 | %26
w: ri- * * *||* mus,|pe-|ri- * * *||* mus, pe-|ri, pe-|
 c4 z2 A2 | z2 B2 z2 B2 | G4 z2 d2 | e6 d2 | c2 B2 A4- | A4 G2 F2 | ^G8 :: A2 A2 A2 B2 | c3 c c4 | %35
w: ri, pe,|pe, pe-|ri, pe-|ri _|_ _ _||mus:|So- lus es in|me- di- is|
 z8 | d2 dd c2 B2 | z8 | c2 BB A2 ^G2 | e2 ee d2 c2 | B4 A4 | d2 dd d2 c2 | B6 A2 | ^G4 A4 | %44
w: |an- cho- ra sa- cra,||an- cho- ra sa- cra,|an- cho- ra sa- cra|ma- lis,|an- cho- ra sa- cra|ma- *||
 B4 c2 AB | c2 d2 e4- | e2 d2 c4 | B8 | A8 |] %49
w: ||||lis.|
V:2
 z8 | z8 | z8 | A6 GF |"^#" E2 F2 ^G2 A2 | B2 ^G2 A2 B2 | c6 BA | B8- | B8 | A4 c4 | c2 c4 A2 | %11
w: |||Na- * *||||||ve, na-|ve tu- a,|
 c2 c2 c4 | B2 B2 ^c2 d2 | e8 | d2 d2 e2 d2 | c4 B4 | A8 | ^G8 | z4 z2 E2 | e2 ^c2 d2 B2 | %20
w: na- ve tu-|a, si non ser-|va-|mur, si non ser-|va- mur|Chri-|ste|pe-|ri- * * *|
 c2 A2 B2 G2 | A4 E4 | z4 B4 | e2 c2 d2 B2 | c2 A2 B2 ^G2 | A4 E2 E2 | e4 z2 c2 |"^#" z2 G2 z2 d2 | %28
w: |* mus,|pe-|ri- * * *||* mus, pe-|ri, pe,|pe, pe-|
 d4 z2 B2 | c6 B2 | A2 ^G2 A4 | B8- | B8 :: ^c2 c2 c2 d2 | e3 e e4 | d2 dd c2 B2 | z8 | %37
w: ri, pe-|ri- *||mus:|_|So- lus es in|me- di- is|an- cho- ra sa- cra,||
 c2 BB A2 ^G2 | z8 | c2 cc B2 A2 | ^G4 A4 | B2 BB B2 A2 | ^G6 A2 | B4 c4 | B2 E2 e4- | e2 d2 c4- | %46
w: an- cho- ra sa- cra,||an- cho- ra sa- cra|ma- lis,|an cho- ra sa- cra|ma- *||||
 c2 B2 A4- | A2 ^G^F G4 | A8 |] %49
w: ||lis.|

